public/svg/trust_to_scale/apescreener.svg

<svg width="152" height="57" viewBox="0 0 152 57" fill="none" xmlns="http://www.w3.org/2000/svg">
<g clip-path="url(#clip0_225_3216)">
<g clip-path="url(#clip1_225_3216)">
<path fill-rule="evenodd" clip-rule="evenodd" d="M50.7605 27.1538C50.7605 24.6784 48.6472 23.0715 45.9302 23.0715C42.7173 23.0715 41.0569 24.9172 40.9707 27.1321H44.0758C44.0973 26.3504 44.5287 25.6121 45.7146 25.6121C46.685 25.6121 47.2241 26.0681 47.2241 26.7195C47.2241 27.2407 46.9222 27.6315 46.3616 27.6315H44.809C42.5233 27.6315 40.9707 28.9344 40.9707 31.0841C40.9707 32.9081 42.4155 34.363 44.4424 34.363C45.844 34.363 46.9438 33.755 47.2241 32.843V34.1892H50.7605V27.1538ZM47.2241 29.803V29.8898C47.2241 30.9104 46.5772 31.8658 45.4343 31.8658C44.809 31.8658 44.3346 31.475 44.3346 30.9104C44.3346 30.259 44.7874 29.803 45.4128 29.803H47.2241ZM51.7187 38.619V23.2452H55.2767V24.179C55.902 23.4841 56.8293 23.0715 58.1662 23.0715C60.7011 23.0715 62.533 24.7016 62.964 27.4312C63.4054 25.2167 65.0255 23.0715 68.2924 23.0715C72.411 23.0715 73.7696 26.1984 73.7696 28.5001C73.7696 28.9995 73.748 29.3035 73.7264 29.5641H66.2439C66.4595 30.7801 67.2143 31.475 68.508 31.475C69.4784 31.475 70.1469 31.1275 70.3409 30.3892H73.7696L73.7612 30.4327H76.3359C76.4437 31.2144 77.1122 31.7355 78.0178 31.7355C78.7726 31.7355 79.29 31.4315 79.29 30.9538C79.29 30.2681 78.4552 30.1202 77.4287 29.9383C75.7897 29.648 73.662 29.2711 73.662 26.4807C73.662 24.5047 75.3871 23.0715 77.5649 23.0715C80.2819 23.0715 82.1148 24.5264 82.2011 26.7412H79.1822C79.0744 26.003 78.449 25.4818 77.7159 25.4818C77.0475 25.4818 76.5946 25.7641 76.5946 26.3287C76.5946 27.0738 77.4506 27.1798 78.5024 27.3101C79.9038 27.4834 81.6527 27.7 82.1885 29.5285C82.1556 29.2653 82.1387 28.9946 82.1387 28.7172C82.1387 25.4167 84.5323 23.0715 87.8745 23.0715C90.915 23.0715 93.2007 24.939 93.3516 27.523H89.7721C89.5996 26.6978 88.8664 26.1115 88.004 26.1115C86.6886 26.1115 85.826 27.1321 85.826 28.7172C85.826 30.3024 86.7101 31.323 88.0471 31.323C88.9312 31.323 89.6643 30.715 89.8153 29.8898H93.4596C93.1792 32.387 90.7209 34.363 87.8745 34.363C85.0823 34.363 82.9522 32.7262 82.3268 30.263C82.3434 30.4321 82.3521 30.6115 82.3521 30.8018C82.3521 32.9515 80.6486 34.363 78.0178 34.363C75.6737 34.363 73.9717 33.2155 73.4794 31.3666C72.7016 33.2269 70.8034 34.363 68.508 34.363C65.2086 34.363 63.4348 32.1749 62.9651 29.9373C62.5113 32.7066 60.4927 34.363 57.8427 34.363C56.7215 34.363 55.8158 34.1024 55.2767 33.5378V38.619H51.7187ZM57.3468 31.323C58.6837 31.323 59.5894 30.2807 59.5894 28.7172C59.5894 27.1538 58.6837 26.1115 57.3468 26.1115C55.9883 26.1115 55.0826 27.1538 55.0826 28.7172C55.0826 30.2807 55.9883 31.323 57.3468 31.323ZM66.2439 27.4361C66.4811 26.1115 67.1496 25.6121 68.2924 25.6121C69.5215 25.6121 70.19 26.5024 70.2547 27.4361H66.2439ZM107.85 30.3892C107.655 31.1275 106.987 31.475 106.017 31.475C104.723 31.475 103.968 30.7801 103.753 29.5641H111.122C111.465 31.9251 113.249 34.363 116.731 34.363C119.405 34.363 121.539 32.8212 121.992 30.3892H118.564C118.37 31.1275 117.701 31.475 116.731 31.475C115.438 31.475 114.683 30.7801 114.467 29.5641H121.95C121.971 29.3035 121.992 28.9995 121.992 28.5001C121.992 26.1984 120.634 23.0715 116.516 23.0715C113.243 23.0715 111.623 25.2229 111.185 27.4409C110.818 25.3443 109.312 23.0715 105.801 23.0715C103.315 23.0715 101.782 24.3138 100.997 25.8836V23.2451H99.8546C98.647 23.2451 97.8492 23.5926 97.2238 24.8954V23.2451H93.6658V34.1891H97.2238V28.652C97.2238 27.1103 97.9139 26.1983 99.0998 26.1983H100.852C100.506 27.0091 100.345 27.8878 100.345 28.7172C100.345 31.3012 102.114 34.363 106.017 34.363C108.691 34.363 110.825 32.8212 111.278 30.3892H107.85ZM103.753 27.4361C103.99 26.1115 104.658 25.6121 105.801 25.6121C107.03 25.6121 107.699 26.5024 107.763 27.4361H103.753ZM116.516 25.6121C115.372 25.6121 114.704 26.1115 114.467 27.4361H118.478C118.414 26.5024 117.745 25.6121 116.516 25.6121ZM125.871 23.2452H122.313V34.1892H125.871V28.1527C125.871 27.067 126.626 26.2418 127.704 26.2418C128.782 26.2418 129.537 27.067 129.537 28.1527V34.1892H133.095V27.3058C133.095 24.8738 131.5 23.0715 129.062 23.0715C127.64 23.0715 126.497 23.6578 125.871 24.5047V23.2452ZM139.087 31.475C140.056 31.475 140.725 31.1275 140.919 30.3892H144.348C143.895 32.8212 141.76 34.363 139.087 34.363C135.183 34.363 133.415 31.3012 133.415 28.7172C133.415 26.1332 134.967 23.0715 138.871 23.0715C142.99 23.0715 144.348 26.1984 144.348 28.5001C144.348 28.9995 144.326 29.3035 144.305 29.5641H136.822C137.038 30.7801 137.792 31.475 139.087 31.475ZM138.871 25.6121C137.727 25.6121 137.06 26.1115 136.822 27.4361H140.832C140.768 26.5024 140.1 25.6121 138.871 25.6121ZM152 26.1983H150.102C148.917 26.1983 148.226 27.1103 148.226 28.652V34.1891H144.668V23.2451H148.226V24.8954C148.852 23.5926 149.65 23.2451 150.857 23.2451H152V26.1983Z" fill="#677399"/>
<path fill-rule="evenodd" clip-rule="evenodd" d="M34.4973 31.0016C34.4977 30.1732 34.498 29.3448 34.498 28.5163L34.4976 28.5144L34.4972 28.5126C34.4972 27.6487 34.4969 26.7848 34.4966 25.921C34.496 23.7602 34.4952 21.5996 34.4989 19.4386C34.5006 18.3203 34.3114 17.2447 33.8812 16.2107C33.5262 15.3585 33.0493 14.5881 32.4377 13.8976C31.8355 13.2185 31.1557 12.6333 30.3548 12.2115C29.8684 11.9559 29.363 11.7176 28.8404 11.5559C28.2546 11.3741 27.6448 11.2211 27.0366 11.1741C26.3498 11.1213 25.658 11.1266 24.9667 11.1318C24.7586 11.1334 24.5507 11.135 24.3429 11.135C23.9654 11.1348 23.5878 11.1346 23.2103 11.1344C18.6773 11.1319 14.1437 11.1294 9.61087 11.1359C9.44265 11.1362 9.27447 11.135 9.10632 11.1339C8.35646 11.1288 7.60719 11.1237 6.85849 11.248C6.05766 11.3811 5.29483 11.6176 4.57002 11.9637C3.82361 12.3194 3.15755 12.8072 2.55023 13.3759C1.89108 13.9924 1.36323 14.709 0.941653 15.5003C0.623738 16.0968 0.358521 16.7238 0.24967 17.4003C0.224565 17.5565 0.196151 17.713 0.167716 17.8695C0.0836245 18.3323 -0.000641908 18.7961 3.68607e-06 19.2595C0.000665492 19.7691 0.0849805 20.2792 0.169057 20.7879C0.19473 20.9432 0.220383 21.0984 0.243623 21.2534C0.33606 21.8656 0.583999 22.4282 0.846624 22.9813C1.16022 23.6413 1.56193 24.2491 2.0604 24.7804C2.41892 25.1622 2.79817 25.5317 3.20766 25.857C3.87459 26.3874 4.61495 26.8057 5.43133 27.0517C6.00496 27.2248 6.59241 27.3788 7.18504 27.4579C7.71548 27.5283 8.26319 27.5178 8.79967 27.484C9.28345 27.4536 9.77501 27.3883 10.2415 27.2579C10.7616 27.1127 11.2653 26.897 11.7602 26.6761C12.4065 26.3874 12.9982 25.997 13.5053 25.504C14.0842 24.9419 14.6549 24.3709 15.2256 23.7998C15.7401 23.2852 16.2547 22.7705 16.7752 22.2621C16.9629 22.0789 17.1439 21.8879 17.3249 21.6968C17.8362 21.1572 18.3481 20.617 19.0136 20.2491C19.5085 19.9751 20.0277 19.7664 20.5875 19.7073C21.2744 19.6343 21.9698 19.5925 22.6324 19.8508L22.6768 19.868C23.0936 20.0302 23.5166 20.1948 23.8937 20.4299C24.6263 20.8865 25.1662 21.5273 25.5567 22.3126C25.8668 22.936 26.0189 23.5873 26.0543 24.2683C26.0811 24.7961 25.9999 25.3144 25.8375 25.8248C25.6258 26.4891 25.3208 27.1022 24.8422 27.5979C24.1084 28.3571 23.3608 29.1033 22.6134 29.8493C22.2863 30.1757 21.9594 30.5019 21.6337 30.8293C21.5062 30.9574 21.3768 31.0841 21.2475 31.2109C20.9347 31.5174 20.6218 31.824 20.3327 32.1519C19.6882 32.8841 19.1699 33.6997 18.8088 34.6171C18.5392 35.3015 18.3475 36.005 18.2732 36.7294C18.1643 37.7911 18.2231 38.8459 18.5254 39.8842C18.7077 40.5094 18.9341 41.1121 19.2477 41.6773C19.8005 42.6729 20.5375 43.5138 21.4376 44.206C22.1435 44.7478 22.9098 45.1817 23.7659 45.4304C24.2185 45.5617 24.6789 45.6843 25.1437 45.7512C25.6596 45.8252 26.1873 45.8817 26.7048 45.8521C27.2879 45.8191 27.8685 45.7052 28.4421 45.5842C29.3078 45.4017 30.0957 45.0173 30.8317 44.5329C31.4709 44.1121 32.0377 43.6034 32.5387 43.0199C33.2765 42.1625 33.8087 41.1868 34.1421 40.1103C34.3901 39.3085 34.5041 38.4799 34.5015 37.6328C34.4952 35.4224 34.4963 33.212 34.4973 31.0016ZM8.08576 45.8712C12.5633 45.9138 16.2936 42.3093 16.2652 37.6762C16.3248 33.2205 12.7145 29.4665 8.13327 29.4856C3.64704 29.5048 0.038543 32.9987 0.00139536 37.6127C-0.0357522 42.2181 3.53387 45.8277 8.08576 45.8712Z" fill="#677399"/>
</g>
</g>
<defs>
<clipPath id="clip0_225_3216">
<rect width="152" height="57" fill="white"/>
</clipPath>
<clipPath id="clip1_225_3216">
<rect width="152" height="34.7429" fill="white" transform="translate(0 11.1287)"/>
</clipPath>
</defs>
</svg>

<svg xmlns="http://www.w3.org/2000/svg" width="152" height="57" fill="none" viewBox="0 0 152 57"><g clip-path="url(#a)"><g fill="#677399" fill-rule="evenodd" clip-path="url(#b)" clip-rule="evenodd"><path d="M50.76 27.154c0-2.476-2.113-4.082-4.83-4.082-3.213 0-4.873 1.845-4.96 4.06h3.106c.021-.782.453-1.52 1.639-1.52.97 0 1.51.456 1.51 1.108 0 .52-.303.912-.863.912h-1.553c-2.286 0-3.838 1.302-3.838 3.452 0 1.824 1.445 3.279 3.471 3.279 1.402 0 2.502-.608 2.782-1.52v1.346h3.537zm-3.536 2.649v.087c0 1.02-.647 1.976-1.79 1.976-.625 0-1.1-.391-1.1-.956 0-.651.453-1.107 1.079-1.107zm4.495 8.816V23.245h3.558v.934c.625-.695 1.552-1.107 2.89-1.107 2.534 0 4.366 1.63 4.797 4.36.441-2.215 2.061-4.36 5.328-4.36 4.119 0 5.478 3.126 5.478 5.428 0 .5-.022.803-.044 1.064h-7.482c.216 1.216.97 1.911 2.264 1.911.97 0 1.639-.348 1.833-1.086h3.429l-.009.044h2.575c.108.781.776 1.302 1.682 1.302.755 0 1.272-.303 1.272-.781 0-.686-.835-.834-1.861-1.016-1.64-.29-3.767-.667-3.767-3.457 0-1.976 1.725-3.41 3.903-3.41 2.717 0 4.55 1.455 4.636 3.67h-3.019a1.47 1.47 0 0 0-1.466-1.26c-.668 0-1.121.283-1.121.848 0 .745.856.85 1.907.981 1.402.173 3.15.39 3.687 2.219a7 7 0 0 1-.05-.812c0-3.3 2.393-5.645 5.736-5.645 3.04 0 5.326 1.867 5.477 4.451h-3.58a1.79 1.79 0 0 0-1.768-1.412c-1.315 0-2.178 1.021-2.178 2.606s.884 2.606 2.221 2.606c.884 0 1.617-.608 1.768-1.433h3.645c-.28 2.497-2.74 4.473-5.585 4.473-2.793 0-4.923-1.637-5.548-4.1q.025.254.025.539c0 2.15-1.703 3.561-4.334 3.561-2.344 0-4.046-1.148-4.539-2.996-.777 1.86-2.676 2.996-4.971 2.996-3.3 0-5.073-2.188-5.543-4.426-.454 2.77-2.472 4.426-5.122 4.426-1.122 0-2.027-.26-2.566-.825v5.081zm5.628-7.296c1.337 0 2.242-1.042 2.242-2.606s-.905-2.605-2.242-2.605c-1.359 0-2.264 1.042-2.264 2.605 0 1.564.905 2.606 2.264 2.606m8.897-3.887c.237-1.325.906-1.824 2.048-1.824 1.23 0 1.898.89 1.963 1.824zm41.606 2.953c-.195.739-.863 1.086-1.833 1.086-1.294 0-2.049-.695-2.264-1.91h7.369c.343 2.36 2.127 4.798 5.609 4.798 2.674 0 4.808-1.542 5.261-3.974h-3.428c-.194.739-.863 1.086-1.833 1.086-1.293 0-2.048-.695-2.264-1.91h7.483c.021-.262.042-.566.042-1.065 0-2.302-1.358-5.428-5.476-5.428-3.273 0-4.893 2.15-5.331 4.369-.367-2.097-1.873-4.37-5.384-4.37-2.486 0-4.019 1.243-4.804 2.813v-2.639h-1.142c-1.208 0-2.006.348-2.631 1.65v-1.65h-3.558V34.19h3.558v-5.537c0-1.542.69-2.454 1.876-2.454h1.752a6.5 6.5 0 0 0-.507 2.52c0 2.583 1.769 5.645 5.672 5.645 2.674 0 4.808-1.542 5.261-3.974zm-4.097-2.953c.237-1.325.905-1.824 2.048-1.824 1.229 0 1.898.89 1.962 1.824zm12.763-1.824c-1.144 0-1.812.5-2.049 1.824h4.011c-.064-.934-.733-1.824-1.962-1.824m9.355-2.367h-3.558V34.19h3.558v-6.036c0-1.086.755-1.911 1.833-1.911s1.833.825 1.833 1.91v6.037h3.558v-6.883c0-2.432-1.595-4.235-4.033-4.235-1.422 0-2.565.587-3.191 1.434zm13.216 8.23c.969 0 1.638-.348 1.832-1.086h3.429c-.453 2.432-2.588 3.974-5.261 3.974-3.904 0-5.672-3.062-5.672-5.646s1.552-5.645 5.456-5.645c4.119 0 5.477 3.126 5.477 5.428 0 .5-.022.803-.043 1.064h-7.483c.216 1.216.97 1.911 2.265 1.911m-.216-5.863c-1.144 0-1.811.5-2.049 1.824h4.01c-.064-.934-.732-1.824-1.961-1.824m13.129.586h-1.898c-1.185 0-1.876.912-1.876 2.454v5.537h-3.558V23.245h3.558v1.65c.626-1.302 1.424-1.65 2.631-1.65H152zM34.497 31.002l.001-2.486v-.003l-.001-2.592q-.003-3.24.002-6.482c.002-1.119-.188-2.194-.618-3.228a8.2 8.2 0 0 0-1.443-2.313c-.603-.68-1.282-1.265-2.083-1.687-.487-.255-.992-.493-1.515-.655-.585-.182-1.195-.335-1.803-.382-.687-.053-1.379-.047-2.07-.042l-.624.003H23.21c-4.533-.003-9.066-.006-13.6 0q-.251.001-.504-.001c-.75-.005-1.499-.01-2.248.114q-1.2.198-2.288.716c-.746.355-1.412.843-2.02 1.412A8.1 8.1 0 0 0 .942 15.5c-.318.597-.583 1.224-.692 1.9q-.039.235-.082.47c-.084.462-.169.926-.168 1.39 0 .51.085 1.02.17 1.528l.074.465c.092.613.34 1.175.603 1.728.313.66.715 1.268 1.213 1.8.359.381.738.75 1.148 1.076.667.53 1.407.949 2.223 1.195.574.173 1.161.327 1.754.406.53.07 1.078.06 1.615.026.483-.03.975-.096 1.441-.226.52-.145 1.024-.361 1.52-.582a6 6 0 0 0 1.744-1.172c.58-.562 1.15-1.133 1.72-1.704q.771-.774 1.55-1.538c.188-.183.369-.374.55-.565.511-.54 1.023-1.08 1.689-1.448.495-.274 1.014-.483 1.573-.542.687-.073 1.383-.114 2.045.144l.045.017c.417.162.84.327 1.217.562.732.457 1.272 1.097 1.663 1.883.31.623.462 1.274.497 1.955a4.4 4.4 0 0 1-.216 1.557c-.212.664-.517 1.277-.996 1.773a177 177 0 0 1-2.229 2.251l-.98.98q-.19.192-.386.382c-.312.306-.625.613-.914.94a8.3 8.3 0 0 0-1.524 2.466 8 8 0 0 0-.536 2.112c-.109 1.062-.05 2.117.252 3.155.183.625.41 1.228.723 1.793a8.2 8.2 0 0 0 2.19 2.529c.706.542 1.472.976 2.328 1.224.453.132.913.254 1.378.321.516.074 1.043.13 1.56.101.584-.033 1.165-.147 1.738-.268.866-.182 1.654-.567 2.39-1.051a8.2 8.2 0 0 0 1.707-1.513 8.1 8.1 0 0 0 1.603-2.91c.248-.801.362-1.63.36-2.477q-.009-3.315-.005-6.631M8.086 45.872a8.1 8.1 0 0 0 8.18-8.196c.059-4.456-3.551-8.21-8.133-8.19-4.486.019-8.094 3.513-8.132 8.127-.037 4.605 3.533 8.215 8.085 8.258"/></g></g><defs><clipPath id="a"><path fill="#fff" d="M0 0h152v57H0z"/></clipPath><clipPath id="b"><path fill="#fff" d="M0 11.129h152v34.743H0z"/></clipPath></defs></svg>
